X:1
T:Domine, ne in furore
T:Bernhard Klingenstein
T:Source : Biciniorum---Leipzig---J.Apelio---1612. Editor : André Vierendeels (24/04/15).
T:Notes : Original clefs : C1, C3 Editorial accidentals above the staff 
T:Domine, ne in furore
C:Berhard Klingenstein
%%score [ 1 2 ]
L:1/8
Q:1/4=76
M:4/2
K:C
V:1 treble nm="Superius" snm="S"
V:2 treble-8 nm="Tenor" snm="T"
V:1
 z8 A6 A2 | ^G2 A2 E2 A2 B2 c2 d2 cB | ABGA B2 A2 GABc dBcd | e2 d4 ^c2 d2 A2 c2 B2 | %4
w: Do- mi-|ne, ne in fu- ro- re tu- * *|* * * * * o ar- * * * * * * *|* gu- as me, ne- que in|
 A2 G2 FDEF G2 F2 E2 GA | BAcB AFGA G2 F2 E4 | D2 A4 A2 A2 A2 _B2 A2 | GF F4 E2 F2 F4 E2 | %8
w: i- ra tu- * * * a cor- ri- * *|* * * * * * * * * pi- as|me, mi- se- re- re me- i|Do- * * mi- ne, quo- ni-|
 E2 G4 F2 E4 D2 d2- | dc c2 B3 B A2 A4 G2 | c2 B2 A2 A4 G2 A3 G/F/ | E2 A3 GAB c2 A2 AGAB | %12
w: am in- fir- mus sum, sa-|* na me, Do- mi- ne, quo- ni-|am con- tur- ba- ta sunt _ _|_ _ _ _ _ os- sa me- * * *|
 cBAG/F/ GFFE/D/ E4 D4 | z2 D2 ABcB A2 D2 G3 F/E/ | F2 G2 A3 A B2 c2 A2 _B2- | B2 A4 G2 A4 z2 A2- | %16
w: * * * * * * * * * * * a|et a- * * * * ni- ma _ _|_ me- a tur- ba- ta est val-|* * * de, sed|
 A2 G2 G2 F2 E2 EF GAGF | GFFE/D/ E2 E2 D8 |] %18
w: _ tu, Do- mi- ne us- * * * * *|* * * * * * que- quo?|
V:2
 d6 d2 ^c2 d2 A2 d2 | e2 f2 g2 fe de Ac B2 AB | cd e2 defd efge fgaf | g2 f2 e4 d4 z2 d2 | %4
w: Do- mi- ne, ne in fu-|ro- re tu- * * * * * * o ar- *||* gu- as me, ne-|
"^-natural" f2 e2 d2 c2 BGAB cd e2 | d2 A2 cdef ed d3 c/B/ ^c2 | d4 z2 d4 d2 d2 d2 | %7
w: que in i- ra tu- * * * * * *|a cor- ri- * * * * * pi- * * as|me, mi- se- re- re|
 _B2 A2 G3 G FGAB c2 c2- | c2 B2 B2 d4 c4 B2 | A4 z2 g3 f f2 e3 e | A2 d4 c2 f2 e2 d2 d2- | %11
w: me- i Do- mi- ne _ _ _ _ quo-|* ni- am in- fir- mus|sum, sa- ne me, Do- mi-|ne, quo- ni- am con- tur- ba-|
 d2 c2 d3 c/B/ A2 dc defd |"^#" e2 f2 ed d4 c2 d2 G2 | defe d2 A2 c3 B/A/ B2 c2 | %14
w: * ta sunr _ _ _ os- * * * * *|* * * * * sa me- a,|et _ _ _ a- ni- ma _ _ _ me-|
 d2 cB c2 d4 e2 f2 d2 | c4 _B4 A2 d4 c2 | c2 B2 A4 ABcd efed | ed d4 ^c2 d8 |] %18
w: a tur _ _ ba- ta est val-|* * de, sed tu,|Do- mi ne, us- * * * * * * *|* * * que- quo?|

